X: 32262
T: Pick The Lock
R: slip jig
M: 9/8
K: Gmajor
|:B2d dBA AGE|D2D DEF G2A|B2d dBA dBA|Bdd dgf d3|
B2d dBA AGE|D2D DEF GBd|deg ged dcB|ADd B2 A [1G2A:|2 GFE||
|:D2G GED GED|E2G GED ABG|D2G GED GED|A2A ABc dBG|
D2G GED GED|E2G GED ABG|D2G GED GAB|d2e B2A [1G2E:|2 G3||

